file-minus.svg

<svg fill="currentColor" viewBox="0 0 24 24"><path d="M14 2H6c-1.11 0-2 .89-2 2v16c0 1.11.89 2 2 2h7.81c-.53-.91-.81-1.95-.81-3 0-3.31 2.69-6 6-6 .34 0 .67.03 1 .08V8zm-1 7V3.5L18.5 9zm10 11h-8v-2h8z"/></svg>

<svg  viewBox="0 0 24 24" fill="currentColor"><path  d="M14 2H6C4.89 2 4 2.89 4 4V20C4 21.11 4.89 22 6 22H13.81C13.28 21.09 13 20.05 13 19C13 15.69 15.69 13 19 13C19.34 13 19.67 13.03 20 13.08V8L14 2M13 9V3.5L18.5 9H13M23 20H15V18H23V20Z"/></svg>
